!!!OTL: Erkennungszeichen (178a), S. 390
!!!id: T0357
**kern
*clefG2
*k[f#]
*G:
{8g
8g
=1
8g
8d
4d
8g
8a
=2
8b
8g
4g}
=3
{8a
8b
=4
4cc
4b
8b
16g
16b
=5
4a}
4r
=6
{8a
8b
=7
4cc
8cc
8cc
8b
8g
=8
8a
8b
4a}
=9
{8b
8a
=10
4g
8b
8a
8g
8f#
=11
4g}
4r
=12
{8a
8b
=13
4cc
8cc
8cc
8b
8g
=14
8a
8b
4a}
=15
{8b
8a
=16
4g
8b
8a
8g
8f#
=17
4g}
4r
==
*-
!!!minrhy: 16
!!!meters: 3/4 ]  ZZ[6
!!!cut: Erkennungszeichen (178a), S. 390
!!!reg: Luxemburg
!!!trd: Singendes Volk, Esch-Alzette, 1937 posth.
!!!rhy1: X_X_  X_X_X__X_X_  X_X_X__
!!!rhy2: X_X_  X__X__X_XX  X__0__
!!!key: T0357  16  G 3/4 ]  ZZ[6
!!!mod: SECHSTONSKALA DUR ?]  AMBITUS[7b
!!!kad: 122121
!!!akz: 13_42_42_11_42_11_
!!!fot: 'a__b__bv_c__bv_c__
!!!for: 'a__b__c__cw_c__cw_
!!!fok: '^__^__^__\__^__\__
!! PHRAS[AUFTAKTIG]
!!!fkt: Tage-, W&auml;chter-, Fenstergang-, St&auml;ndchenlieder, Liebeslied
!!!bem1: StraPen, fff Witry, 17.1.1933;
!!!bem2: (178b)- Rodershausen, fff Lutgen, !930,
!!!bem3: mitgeteilt, hhh Josef Bour (Lehrer)
!! THILL; Mathias
!! PR[40] 2K[5] 2G[12] 3K[2] 3G[9] 4A[5] 4Ü[0] 5A[0] 6K[0] 6G[0]
!! 7K[0] 7G[0] 8A[0] MEHR[0] SI[33] ABS[43] SR[16] SP[16]
!! ST[16] 2k[2] 2g[14] 3k[0] 3g[2] 4d[5] 4ü[0] 5d[5] 6k[0] 6g[0]
!! 7k[0] 7g[0] 8d[0] mehr[0] si[28] dm[+5] sr[16] sp[12]
!! 1F[23] 2F[14] 3F[39] 4F[2] LF[0] 2P[23] 3P[0] 4P[0] TRI[0] DF[5] AB[44]
!! TF[0] U3K[0] U3[0] U4[0] U4Ü[0] U5[0] U6K[0] U6[0] U7K[0] U7[0]
!! N1[14] N2K[0] N2[11] N3K[0] N3[32] N4[7] N4Ü[0] N5[32] N6K[0] N6[0]
!!!n7k: 0] N7[0] O1[5] O2K[0] O2[0] O3K[0] O3[0] HÖ[0
!!!RNB: symbol: &auml;      = a umlaut  (UTF-8: Å„)
